X:1
T: The Cork Hornpipe
P:Roche version
R:Reel
Q: 232
K:D
M:4/4
L:1/8
|:FE|DA FA DA FA|df ed dc BA|eA fA gA fA|ef dB AB GE|
DA FA DA FA|((3efg) ec dc BA|ef ge ae ce|d2 d2 d2:|
|:cd|eA AA fA AA|gA AA aA AA|eA fA gA fA|((3efd) ((3cdB) ((3ABG) ((3FGE)|
DA FA DA FA|((3efg) ec dc BA|df af bg ec|d2 d2 d2:|
